packages/orbit-components/src/icons/svg/car-door.svg

<!--character:231:550:2378-->
<svg width="24" height="24" viewBox="0 0 24 24" xmlns="http://www.w3.org/2000/svg"><path d="M20.99 5.92c0-1.34-1.06-2.42-2.36-2.42h-7.79c-.8 0-1.58.33-2.14.89l-5.12 5.2c-.37.37-.58.87-.58 1.4v7.09c0 1.34 1.06 2.42 2.36 2.42h13.28c1.3 0 2.36-1.08 2.36-2.42l-.01-12.16zM18 15.5h-3c-.552 0-1-.448-1-1s.448-1 1-1h3c.552 0 1 .448 1 1s-.448 1-1 1zm-12.51-5l4.63-4.7c.19-.19.45-.3.72-.3h7.79c.2 0 .36.19.36.42L19 10.5H5.49z"/></svg>

<!--character:231:550:2378-->
  <svg width="24" height="24" viewBox="0 0 24 24" >
<path   d="M20.99 5.92C20.99 4.58 19.93 3.5 18.63 3.5H10.84C10.04 3.5 9.26 3.83 8.7 4.39L3.58 9.59C3.21 9.96 3 10.46 3 10.99V18.08C3 19.42 4.06 20.5 5.36 20.5H18.64C19.94 20.5 21 19.42 21 18.08L20.99 5.92ZM18 15.5H15C14.448 15.5 14 15.052 14 14.5C14 13.948 14.448 13.5 15 13.5H18C18.552 13.5 19 13.948 19 14.5C19 15.052 18.552 15.5 18 15.5ZM10.12 5.8L5.49 10.5H19L18.99 5.92C18.99 5.69 18.83 5.5 18.63 5.5H10.84C10.57 5.5 10.31 5.61 10.12 5.8Z" />
</svg>
